!!!COM: Anon.
!!!OTL: Veris Ad Imperia
!!!SCA: Folio 228'-229
!!!YOR: from 'Thirty-Five Conductus for Two and Three Voices', p.36
!!!YOR: edited by Janet Knapp, Collegium Musicum No. 6, Yale University (1965)
!!!YOR: from the School of Notre Dame; circa 1170-1240
!!!YOO: Yale University
!!!YOY: 1965
**kern	**kern	**kern
*M6/8	*M6/8	*M6/8
=1	=1	=1
4e	4e	4A
8f	8d	16B
.	.	16A
4g	4c	4G
8g	16B	8c
.	16A	.
=2	=2	=2
4g	4G	4d
8f	8F	8c
4d	4G	4d
8r	8r	8r
=3	=3	=3
4e	4A	4e
8f	8A	8e
4g	4G	4d
8r	8r	8r
=4	=4	=4
4e	4c	4e
8f	16B	8d
.	16A	.
4g	4G	4c
8g	8c	16B
.	.	16A
=5	=5	=5
4g	4d	4G
8f	8c	8F
4d	4d	4G
8r	8r	8r
=6	=6	=6
4e	4e	4A
8f	8e	8A
4g	4d	4G
8r	8r	8r
=7	=7	=7
4e	4e	4c
8f	8d	16B
.	.	16A
4g	4c	4G
8g	16B	8c
.	16A	.
=8	=8	=8
4g	4G	4d
8f	8F	8c
4d	4G	4d
8r	8r	8r
=9	=9	=9
4e	4A	4e
8f	8A	8e
4g	4G	4d
8r	8r	8r
=10	=10	=10
4e	4c	4e
8f	16B	8d
.	16A	.
4g	4G	4c
8g	8c	16B
.	.	16A
=11	=11	=11
4g	4d	4G
8f	8c	8F
4d	4d	4G
8r	8r	8r
=12	=12	=12
4e	4e	4A
8d	8f	8B
4c	4g	4c
8r	8r	8r
=13	=13	=13
4.d	4f	4.d
.	8e	.
4.d	4.d	4.G
=14	=14	=14
8c	8e	4.c
8B	8d	.
8A	8c	.
4B	4B	4B
8r	8r	8r
=15	=15	=15
4d	4G	4g
8d	8A	8g
4d	4B	4f#
8B	8r	8r
=16	=16	=16
4c	4c	4g
8c	16c	8g
.	16d	.
4c	8e	4f#
.	8d	.
8A	8B	8e
=17	=17	=17
4B	4c	4g
8B	8d	8g
8A	4.d	8f#
8G	.	8e
8F	.	8d
=18	=18	=18
4G	4d	4g
8A	8d	8g
4B	4d	4f#
8r	8B	8r
=19	=19	=19
4G	4d	4g
8A	8d	8g
4B	4d	4f#
8r	8B	8r
=20	=20	=20
4.d	4.d	4.g
8e	4.d	8f#
8d	.	8e
8B	.	8d
=21	=21	=21
4c	4c	4c
8B	16d	8d
.	16e	.
4A	4f#	8c
.	.	8B
8G	8g	8A
=22	=22	=22
4.A	4.e	4.A
4.F	8f	4B
.	8f	.
.	8d	8c
=23	=23	=23
4.G	4.d	4.d
4.r	4.r	4.r
==	==	==
*-	*-	*-
!!!ENC: David Huron
!!!YEC: Copyright 1987, David Huron
!!!EEV: 1.0
